src/actions/16/tools-rip-video-cd.svg

<?xml version="1.0" encoding="UTF-8"?>
<svg viewBox="0 0 16 16" xmlns="http://www.w3.org/2000/svg">
 <defs id="defs3051">
  <style id="current-color-scheme" type="text/css">.ColorScheme-Text {
        color:#363636;
      }</style>
 </defs>
 <path class="ColorScheme-Text" d="m8 2a6 6 0 0 0-6 6 6 6 0 0 0 5 5.9141v-1.0156a5 5 0 0 1-4-4.8984 5 5 0 0 1 5-5 5 5 0 0 1 5 5h1a6 6 0 0 0-6-6zm0 2c-2.2091 0-4 1.7909-4 4h2c0-1.1046 0.89543-2 2-2v-2zm0.5 4c-0.831 0-1.5 0.669-1.5 1.5 0 0.6542 0.41808 1.2022 1 1.4082v3.0918h4v-2-1c0.554 0 1-0.446 1-1s-0.446-1-1-1-1 0.446-1 1h-1.0918c0.05566-0.1572 0.091797-0.3232 0.091797-0.5 0-0.831-0.669-1.5-1.5-1.5zm3.5 4 2 2v-4l-2 2zm-3-1h2v2h-2v-2z" fill="currentColor"/>
</svg>

<svg xmlns="http://www.w3.org/2000/svg" viewBox="0 0 16 16">
  <defs id="defs3051">
    <style type="text/css" id="current-color-scheme">
      .ColorScheme-Text {
        color:#363636;
      }
      </style>
  </defs>
 <path style="fill:currentColor;fill-opacity:1;stroke:none" 
     d="M 8 2 A 6 6.0000086 0 0 0 2 8 A 6 6.0000086 0 0 0 7 13.914062 L 7 12.898438 A 5 5 0 0 1 3 8 A 5 5 0 0 1 8 3 A 5 5 0 0 1 13 8 L 14 8 A 6 6.0000086 0 0 0 8 2 z M 8 4 C 5.790861 4 4 5.790861 4 8 L 6 8 C 6 6.8954305 6.8954305 6 8 6 L 8 4 z M 8.5 8 C 7.669 8 7 8.669 7 9.5 C 7 10.1542 7.418077 10.702203 8 10.908203 L 8 14 L 12 14 L 12 12 L 12 11 C 12.554 11 13 10.554 13 10 C 13 9.446 12.554 9 12 9 C 11.446 9 11 9.446 11 10 L 9.9082031 10 C 9.9638631 9.8428 10 9.6768 10 9.5 C 10 8.669 9.331 8 8.5 8 z M 12 12 L 14 14 L 14 10 L 12 12 z M 9 11 L 11 11 L 11 13 L 9 13 L 9 11 z "
     class="ColorScheme-Text"
     />
</svg>
